!!!ONB: MCCC : ILB0180_02 : Extracted Monophonic Melody
!!!COM: Beethoven, Ludwig van
!!!OPR: Piano Sonata No.19
!!!OMV: 2
!!!SCT: Op.49 No.1
!!!ODT: 1797///
**kern
*thru
*staff1
*clefG2
*k[f#]
*G:
*M6/8
*MM138
8d
8d
8g
8a
=1
8b
8g
8e
8e
8a
8b
=2
8cc
8a
8ee
8dd
8cc
8b
=3
8a
8g
8a
8b-
8a
8g
=4
8f#
8d
8d
8d
8g
8a
=5
8b
8g
8e
8e
8a
8b
=6
8cc
8a
8ee
8dd
8cc
8b
=7
8a
8g
8a
4d
8f#
=8
4g
8d
8g
8b
8dd
=9
8dd
8cc
8cc
8dd
8b
8b
=10
8dd
8cc
8cc
8dd
8b
8b
=11
8dd
8cc
8b
8dd
8cc
8b
=12
4dd
8dd
8dd
8gg
8aa
=13
8bb
8gg
8ee
8ee
8aa
8bb
=14
8ccc
8aa
8eee
8ddd
8ccc
8bb
=15
8aa
8gg
8aa
4dd
8ff#
=16
4gg
8dd
8dd
8cc#
8dd
=17
4ee-
8dd
8cc
8b-
8a
=18
4dd
8cc
8b-
8a
8g
=19
8e-
8cc
8b-
8a
8g
8f#
=20
*k[b-e-]
*g:
4g
8ddd
8ddd
8ccc#
8ddd
=21
8ddd
8ccc#
8ddd
8ddd
8ccc#
8ddd
=22
8ddd
8ccc
8bb-
8bb-
8aa
8gg
=23
8ff
8gg
8ee
4dd
8dd
=24
8ddd
8ccc#
8ddd
8ddd
8ccc#
8ddd
=25
8ddd
8ccc#
8ddd
8eee-
8ddd
8eee-
=26
[4.fff
8fff]
8eee-
8ddd
=27
8ccc
8bb
8ccc
8eee-
8ccc
8aa
=28
8bb-
8ddd
[8fff
8fff]
8eee-
8ddd
=29
8ccc
8bb
8ccc
8eee-
8ccc
8aa
=30
8bb-
8ddd
8ccc
8bb-
8aa
8gg
=31
8ff
8ee
8ff
8ff#
8gg
8ee-
=32
4.dd
8dd
8cc
8dd
=33
4.ee-
8cc
8b
8cc
=34
4.ff[
8ff]
8ee-
8dd
=35
8cc
8dd
8b-
8a
8b-
8g
=36
[4.f
8f]
8g
8a
=37
8b-
8a
8b-
8f
8a
8b-
=38
8cc
8b
8cc
8f
8b-
8cc
=39
8dd
8cc
8dd
8ee-
8ff
8gg
=40
4.cc
8dd
8cc
8dd
=41
4.ee-
8cc
8b
8cc
=42
4.ff[
8ff]
8ee-
8dd
=43
8cc
8dd
8b-
8a
8b-
8g
=44
[4.f
8f]
8g
8a
=45
8b-
8a
8b-
8f
8a
8b-
=46
8cc
8b
8cc
8dd
8cc
8dd
=47
8ee-
8ff
8gg
4b-
16dd
16cc
=48
4b-
8r
8b-
8a
8b-
=49
4ff
8ff
4ff
8ff
=50
4ff
8ee
8cc
8b
8cc
=51
4ee-
8ee-
4ee-
8ee-
=52
4ee-
8dd
8dd
8cc
8dd
=53
4.ee-
8cc
8b
8cc
=54
[4.ff
8ff]
8ff#
8gg
=55
4.b-
4dd
8cc
=56
4b-
8r
8b-
8a
8b-
=57
4ff
8ff
4ff
8ff
=58
4ff
8ee
8cc
8b
8cc
=59
4ee-
8ee-
4ee-
8ee-
=60
4ee-
8dd
8dd
8cc
8dd
=61
4.ee-
8cc
8b
8cc
=62
[4.ff
8ff]
8ff#
8gg
=63
4.b-
4dd
8cc
=64
4b-
8dd
8dd
8cc#
8dd
=65
4ee-
8dd
8cc
8b-
8a
=66
4dd
8cc
8b-
8a
8g
=67
8e-
8cc
8b-
8a
8g
8f#
=68
4g
8ddd
8ddd
8ccc#
8ddd
=69
8ddd
8ccc#
8ddd
8ddd
8ccc#
8ddd
=70
8ddd
8ccc
8bb-
8bb-
8aa
8gg
=71
8ff
8gg
8ee
4dd
8dd
=72
8ddd
8ccc#
8ddd
8ddd
8ccc#
8ddd
=73
8ddd
8ccc#
8ddd
8eee-
8ddd
8eee-
=74
[4.fff
8fff]
8eee-
8ddd
=75
[4.eee-
8eee-]
8ddd
8ccc
=76
[4.ddd
8ddd]
8ccc
8bb-
=77
8aa
8bb-
8ccc
8ff#
8gg
8aa
=78
4gg
8d
8d
8g
8a
=79
8b-
8g
8r
8d
8a
8b-
=80
8cc
8a
8r
8d
8g
8a
=81
*k[f#]
*G:
8b
8g
8e
8e
8a
8b
=82
8cc
8a
8ee
8dd
8cc
8b
=83
8a
8g
8a
8b-
8a
8g
=84
8f#
8d
8d
8d
8g
8a
=85
8b
8g
8e
8e
8a
8b
=86
8cc
8a
8ee
8dd
8cc
8b
=87
8a
8g
8a
4d
8f#
=88
4g
8d
8g
8b
8dd
=89
8dd
8cc
8cc
8dd
8b
8b
=90
8dd
8cc
8cc
8dd
8b
8b
=91
8dd
8cc
8b
8dd
8cc
8b
=92
4dd
8dd
8dd
8gg
8aa
=93
8bb
8gg
8ee
8ee
8aa
8bb
=94
8ccc
8aa
8eee
8ddd
8ccc
8bb
=95
8aa
8gg
8aa
4dd
8ff#
=96
4gg
8r
8r
8ccc
8bb
=97
8aa
8gg
8ff#
4b
8dd#
=98
8ff#
8ee
8aa
8gg
8ff
8ee
=99
8dd
8cc
8dd
4g
8b
=100
8dd
8cc
8cc
4e
8g#
=101
8b
8a
8a
4d
8f#
=102
8a
8g
8g
8d
8c#
8c#
=103
4d
8r
8b
8a
8b
=104
4.cc
8a
8g#
8a
=105
[4.dd
8dd]
8cc
8b
=106
8a
8b
8g
8f#
8g
8e
=107
[4.d
8d]
8e
8f#
=108
8g
8f#
8g
8d
8f#
8g
=109
8a
8g#
8a
8d
8g
8a
=110
8b
8a
8b
8cc
8dd
8ee
=111
4a
8r
8bb
8aa
8bb
=112
4.ccc
8aa
8gg#
8aa
=113
[4.ddd
8ddd]
8ccc
8bb
=114
8aa
8bb
8gg
8ff#
8gg
8ee
=115
[4.dd
8dd]
8ee
8ff#
=116
8gg
8ff#
8gg
8dd
8ff#
8gg
=117
8aa
8gg#
8aa
8bb
8aa
8bb
=118
8ccc
8bb
8ccc
4eee
8ff#
=119
4gg
8r
8g
8f#
8g
=120
4dd
8dd
4dd
8dd
=121
4dd
8cc#
8a
8g#
8a
=122
4cc
8cc
4cc
8cc
=123
4cc
8b
8b
8a
8b
=124
4.cc
8a
8g#
8a
=125
[4.dd
8dd]
8dd#
8ee
=126
4.g
4b
8a
=127
4g
8r
8g
8f#
8g
=128
4dd
8dd
4dd
8dd
=129
4dd
8cc#
8a
8g#
8a
=130
4cc
8cc
4cc
8cc
=131
4cc
8b
8b
8a
8b
=132
4.cc
8a
8g#
8a
=133
[4.dd
8dd]
8dd#
8ee
=134
4.g
4b
8a
=135
4g
8d
8d
8g
8a
=136
8b
8g
8d
8d
8a
8b
=137
8cc
8a
8r
8r
8dd
8cc
=138
8b
8d
8r
8r
8cc
8b
=139
8a
8d
8d
8d
8g
8a
=140
8b
8g
8e
8e
8a
8b
=141
8cc
8a
8ee
8dd
8cc
8b
=142
8a
8g
8r
8r
8ee
8gg
=143
8ff#
8gg
8ee
8dd
8cc
8b
=144
8a
8g
8r
8r
8ee
8gg
=145
8ff#
8gg
8r
8gg#
8aa
8r
=146
8aa#
8bb
8r
8bb
8ccc
8r
=147
4.ccc[
4ccc]
8aa
=148
4ff#
8r
4r
8r
=149
4.d
4.d
=150
4.f#
4.g
=151
8r
8e
8g#
8a
8cc
8a
=152
8g
8b
8g
8f#
8a
8f#
=153
4g
8d
8d
8a
8b
=154
4cc
8dd
8dd
8aa
8bb
=155
4ccc
8d
8d
8dd
8cc
=156
4b
8dd
8dd
8ddd
8ccc
=157
4bb
8d
8d
8a
8b
=158
4cc
8dd
8dd
8aa
8bb
=159
4ccc
8d
8d
8dd
8cc
=160
4b
8r
8dd
8ddd
8ccc
=161
4bb
8r
8d
8dd
8cc
=162
4b
8r
8dd
8ddd
8ccc
=163
4bb
8r
4bb
8r
=164
4gg
8r
4r
==
*-
